!!!COM:	de Orto, Marbrianus
!!!CDT:	~1460///-1529//
!!!OPR:	Missa La belle se siet
!!!ONM:	3
!!!OTL:	Credo
!!!AGN:	Mass; Credo
!!!SCT:	Ort1003c
!!!SCA:	Ort1003c
!!!voices-OPR:	4
!!!voices:	4
**kern	**text	**kern	**text	**kern	**text	**kern	**text
*staff4	*staff4	*staff3	*staff3	*staff2	*staff2	*staff1	*staff1
*Ivox	*	*Ivox	*	*Ivox	*	*Ivox	*
*I"Bassus	*	*I"Tenor	*	*I"Altus	*	*I"Superius	*
*I'B	*	*I'T	*	*I'A	*	*I'S	*
*>[A,B,C,D]	*>[A,B,C,D]	*>[A,B,C,D]	*>[A,B,C,D]	*>[A,B,C,D]	*>[A,B,C,D]	*>[A,B,C,D]	*>[A,B,C,D]
*>A	*>A	*>A	*>A	*>A	*>A	*>A	*>A
*clefF4	*	*clefGv2	*	*clefGv2	*	*clefG2	*
*k[b-]	*	*k[b-]	*	*k[b-]	*	*k[b-]	*
!!*M3/1	*	*M3/1	*	*M3/1	*	*M3/1	*
!!*met(O)	*	*met(O)	*	*met(O)	*	*met(O)	*
!!section: Patrem omnipotentem
!!!OMD: Patrem omnipotentem
=1-	=1-	=1-	=1-	=1-	=1-	=1-	=1-
0.r	.	0.r	.	1F	Pa-	0f	Pa-
.	.	.	.	2.F/	-trem-	.	.
.	.	.	.	4G/	.	.	.
.	.	.	.	2A/	.	1f	-trem
.	.	.	.	[2B-\	-om-	.	.
=2	=2	=2	=2	=2	=2	=2	=2
0.r	.	0.r	.	2B-\]	.	1g	om-
.	.	.	.	2c\	-ni-	.	.
.	.	.	.	2c\	-po-	2g/	-ni-
.	.	.	.	1B-	-ten-	2g/	-po-
.	.	.	.	.	.	1g	-ten-
.	.	.	.	4A/	.	.	.
.	.	.	.	4G/	.	.	.
=3	=3	=3	=3	=3	=3	=3	=3
2r	.	1F	Fac-	1F	-tem	1a	-tem
1F	Fac-	.	.	.	.	.	.
.	.	1F	-to-	1r	.	1r	.
1D	-to-	.	.	.	.	.	.
.	.	1F	-rem	1r	.	1r	.
[2BB-/	-rem-	.	.	.	.	.	.
=4	=4	=4	=4	=4	=4	=4	=4
2BB-/]	.	1G	ce-	0.r	.	0.r	.
1C	-ce-	.	.	.	.	.	.
.	.	2G/	-li	.	.	.	.
2BB-/	-li	2G/	et	.	.	.	.
4C/	et-	1G	ter-	.	.	.	.
4BB-/	.	.	.	.	.	.	.
4AA/	-ter-	.	.	.	.	.	.
4GG/	.	.	.	.	.	.	.
=5	=5	=5	=5	=5	=5	=5	=5
1FF	-rae,	1A	-re	1r	.	1r	.
2AA/	vi-	2A/	vi-	2c\	vi-	2e/	vi-
2AA/	-si-	2A/	-si-	2c\	-si-	2e/	-si-
2.D\	-bi-	2.A/	-bi-	2.d\	-bi-	2.f/	-bi-
4D\	-li-	4A/	-li-	4d\	-li-	4f/	-li-
=6	=6	=6	=6	=6	=6	=6	=6
1AA	-um	1A	-um	1c	-um	1e	-um
2D\	om-	2A/	om	2.F/	om-	2d/	om-
2D\	-ni-	2A/	ni-	.	.	2d/	-ni-
.	.	.	.	4G/	-ni	.	.
2.F\	-um	1A	-um	4A/	um-	2c/	-um
.	.	.	.	4B-\	.	.	.
.	.	.	.	4c\	.	2f/	et
4E\	.	.	.	4d\	.	.	.
=7	=7	=7	=7	=7	=7	=7	=7
2C/	et	2c\	et	2e\	-et	2g/	in-
2F\	in-	2c\	in-	2f\	in-	2.a/	-vi-
2G\	-vi-	2B-\	-vi-	2d\	-vi-	.	.
.	.	.	.	.	.	4g/	-si-
2E\	-si-	2G/	-si-	2c\	-si-	1g	-bi-
2D\	-bi-	2A/	-bi-	2d\	-bi-	.	.
2D\	-li-	2A/	-li-	2d\	-li-	2f#i/	-li-
=8	=8	=8	=8	=8	=8	=8	=8
1GG	-um	1G	-um	1d	-um	1g	-um-
2r	.	2r	.	2r	.	2r	.
2GG/	Et	2G/	Et	2B-\	Et	2d/	-Et
2C/	in	2G/	in	2.c\	in	2e-/	in
2C/	un-	2G/	un-	.	.	2e-i/	u-
.	.	.	.	4G/	un-	.	.
=9	=9	=9	=9	=9	=9	=9	=9
2BB-/	-um	2G/	-um	2B-\	-um	2d/	-num
4GG/	Do-	4G/	Do-	4B-\	Do-	4d/	Do-
4GG/	-mi-	4G/	-mi-	4B-\	-mi-	4d/	-mi-
2C/	-num	2G/	-num	2c\	-num	2e-i/	-num
2D\	Je-	2F/	Je-	2B-\	Je-	2d/	Je-
2C/	-sum	2G/	-sum	2c\	-sum	2e-i/	-sum
2AA/	Chri-	2A/	Chris-	2F/	Chri-	2c/	Chri-
=10	=10	=10	=10	=10	=10	=10	=10
2GG/	-stum-	1B-	-tum,	2G/	-stum,	1d	-stum,
1BB-	-Fi-	.	.	4F/	Fi-	.	.
.	.	.	.	4D/	.	.	.
.	.	2B-\	Fi-	1d	.	2f/	Fi-
2BB-/	-li-	2B-\	-li-	.	.	2f/	-li-
2E-i\	-um	2B-\	-um	4G/	.	2g/	-um
.	.	.	.	4A/	.	.	.
2E-i\	De-	2B-\	De-	4B-\	.	2g/	De-
.	.	.	.	4c\	.	.	.
=11	=11	=11	=11	=11	=11	=11	=11
1D	-i	1F	-i	2.d\	.	1a	-i
.	.	.	.	4e\	-li-	.	.
2BB-/	u-	1F	u-	2f\	-um	2r	.
2AA/	-ni-	.	.	1c	De-	2.cc\	u-
2FF/	-ge-	1A	-ni-	.	.	.	.
.	.	.	.	.	.	4b-\	.
2F\	.	.	.	2c\	-i	4a/	.
.	.	.	.	.	.	4g/	.
=12	=12	=12	=12	=12	=12	=12	=12
2D\	.	1B-	-ge-	2d\	u-	2f/	-ni-
2E\	.	.	.	2G/	-ni-	1g	-ge-
1D	-ni-	1F	.	2A/	-ge-	.	.
.	.	.	.	2B-\	-ni-	1f	.
1C	-tum	1G	-ni-	1c	-tum	.	.
.	.	.	.	.	.	2e/	-ni-
=13	=13	=13	=13	=13	=13	=13	=13
2r	.	1F	-tum.	1r	.	0f	-tum.
2FF/	Et	.	.	.	.	.	.
2.BB-/	ex-	2r	.	1d	Et	.	.
.	.	2F/	Et	.	.	.	.
4C/	.	.	.	.	.	.	.
2D\	.	2F/	ex	2A/	ex	1r	.
2D\	-Pa-	2F/	Pa-	2A/	Pa-	.	.
=14	=14	=14	=14	=14	=14	=14	=14
1E-i	-tre	2G/	-tre	2c\	-tre	1r	.
.	.	2G/	na-	2c\	na-	.	.
0D	na-	1A	-tum	1d	-tum	2f/	an-
.	.	.	.	.	.	2f/	-te
.	.	2A/	an-	2d\	an-	4f/	om-
.	.	.	.	.	.	4f/	-ni-
.	.	2A/	-te	2d\	-te	2f/	-a
=15	=15	=15	=15	=15	=15	=15	=15
1G	.	2B-\	om-	2d\	om-	2g/	sae-
.	.	2B-\	-ni-	2d\	-ni-	2g/	-cu-
1F	.	2A/	-a	2f\	-a	1a	-la
.	.	2.c\	sae-	4f\	sae-	.	.
.	.	.	.	4f\	-cu-	.	.
1F	-tum	.	.	1f	-la.	2a/	De-
.	.	4B-\	.	.	.	.	.
.	.	4A/	.	.	.	[2cc\	-um
.	.	4G/	.	.	.	.	.
=16	=16	=16	=16	=16	=16	=16	=16
1r	.	2.F/	.	2c\	De-	4cc\]	.
.	.	.	.	.	.	4b-\	.
.	.	.	.	2d\	-um	4a/	.
.	.	4E/	.	.	.	4g/	.
1r	.	2D/	.	2.d\	de	1b-	de
.	.	1G	.	.	.	.	.
.	.	.	.	4d\	De-	.	.
1D	lu-	.	.	1d	-o,	1a	De-
.	.	2F#i/	-cu-	.	.	.	.
=17	=17	=17	=17	=17	=17	=17	=17
2.E\	-men	1G	-la	2r	.	1g	-o,
.	.	.	.	2B-\	lu-	.	.
4F\	de	.	.	.	.	.	.
2G\	lu-	1r	.	2.B-\	-men	2r	.
2E\	.	.	.	.	.	2g/	lu-
.	.	.	.	4G/	de	.	.
1D	.	1r	.	2A/	lu-	2f/	-men
.	.	.	.	2B-\	.	2f/	de
=18	=18	=18	=18	=18	=18	=18	=18
2C/	.	2r	.	1c	-mi-	2g/	lu-
2AA/	.	2F/	De-	.	.	2a/	.
1GG	-mi-	1G	-um	1d	-ne,	2b-\	.
.	.	.	.	.	.	4a/	-mi-
.	.	.	.	.	.	4g/	.
1D	-ne,	1A	ve-	2r	.	1f	-ne-
.	.	.	.	2D/	De-	.	.
=19	=19	=19	=19	=19	=19	=19	=19
2r	.	1B-	-rum	2.G/	-um-	0.r	.
2GG/	De-	.	.	.	.	.	.
.	.	.	.	4E/	.	.	.
2AA/	-um	2r	.	2F/	.	.	.
2GG/	ve-	2B-\	de	1G	-ve-	.	.
1C	-rum	2B-\	De-	.	.	.	.
.	.	2A/	-o	2E/	.	.	.
=20	=20	=20	=20	=20	=20	=20	=20
1BB-	de	1B-	ve-	2F/	-rum	2.d/	-de-
.	.	.	.	2B-\	de	.	.
.	.	.	.	.	.	4e/	.
2.D\	De-	2.F/	.	2A/	De-	4f/	.
.	.	.	.	.	.	4g/	.
.	.	.	.	2D/	-o	4a/	.
4C/	.	4G/	.	.	.	4b-\	.
1AA	-o	4A/	.	4C/	ve-	2cc\	-De-
.	.	4B-\	.	4D/	.	.	.
.	.	2c\	.	4E/	.	2a/	-o
.	.	.	.	4F/	.	.	.
=21	=21	=21	=21	=21	=21	=21	=21
2.GG/	ve-	2d\	.	4G/	.	2.b-\	ve-
.	.	.	.	4A/	.	.	.
.	.	1B-	.	4B-\	.	.	.
4AA/	.	.	.	4c\	.	4a/	.
4BB-/	.	.	.	2d\	.	4g/	.
4C/	.	.	.	.	.	4f/	.
2D\	.	2F/	.	2B-\	.	1f	.
1C	-ro	1G	.	1c	-ro	.	.
.	.	.	.	.	.	2e/	.
=22	=22	=22	=22	=22	=22	=22	=22
2.FF/	Ge-	1F	-ro.	2r	.	1f	-ro
.	.	.	.	2.C/	Ge-	.	.
4GG/	.	.	.	.	.	.	.
4AA/	.	1c	Ge-	.	.	1r	.
4BB-/	.	.	.	4D/	.	.	.
4C/	.	.	.	4E/	.	.	.
4D\	.	.	.	4F/	.	.	.
2E\	.	2c\	-ni-	2G/	.	1r	.
2F\	-ni-	2c\	-tum	[2F/	.	.	.
=23	=23	=23	=23	=23	=23	=23	=23
2BB-/	-tum	2d\	non	4F/]	.	0.r	.
.	.	.	.	4G/	-ni-	.	.
2AA/	non	1c	fac-	1A	-tum	.	.
1FF	fac-	.	.	.	.	.	.
.	.	4B-\	.	1F	non	.	.
.	.	4A/	.	.	.	.	.
1GG	.	1B-	.	.	.	.	.
.	.	.	.	2E/	fac-	.	.
=24	=24	=24	=24	=24	=24	=24	=24
2FF/	-tum,	1A	-tum,	2F/	-tum,	1cc	con-
2.F\	con-	.	.	2.A/	con-	.	.
.	.	1r	.	.	.	2cc\	-sub-
4G\	.	.	.	4G/	.	.	.
2A\	.	.	.	2F/	-sub-	2cc\	-stan-
2B-\	-sub-	1r	.	1f	-stan-	2dd\	-ti-
[2A\	-stan-	.	.	.	.	[2cc\	-a-
=25	=25	=25	=25	=25	=25	=25	=25
2A\]	.	1r	.	1F	-ti-	2cc\]	.
1F	.	.	.	.	.	4b-\	.
.	.	.	.	.	.	4a/	.
.	.	1r	.	1G	-a-	2b-\	-lem
2E\	-ti-	.	.	.	.	2b-\	Pa-
2.F\	-a-	1c	Per	2F/	-lem	1a	-tri,
.	.	.	.	2f\	Pa-	.	.
4G\	.	.	.	.	.	.	.
=26	=26	=26	=26	=26	=26	=26	=26
2A\	-lem	2c\	quem	1e	.	0.r	.
2AA/	Pa-	2c\	om-	.	.	.	.
2BB-/	.	2d\	-ni-	2d\	.	.	.
1AA	-tri,	1c	-a	1e	.	.	.
[2A\	per	2A/	fa-	4d\	.	.	.
.	.	.	.	4c\	.	.	.
=27	=27	=27	=27	=27	=27	=27	=27
2A\]	.	1B-	-cta	1d	-tri,	1r	.
2G\	quem	.	.	.	.	.	.
2A\	om-	1A	sunt	2r	.	1cc	Qui
2.F\	.	.	.	4A/	Qui-	.	.
.	.	.	.	4B-\	.	.	.
.	.	1r	.	4c\	.	2cc\	pro-
4E\	.	.	.	4d\	.	.	.
2C/	-ni-	.	.	2e\	-pro-	2cc\	-pter
=28	=28	=28	=28	=28	=28	=28	=28
2BB-/	-a	0.r	.	1f	-pter	2dd\	nos
2F\	fac-	.	.	.	.	1cc	ho-
2E\	.	.	.	2r	.	.	.
2F\	-ta	.	.	2f\	nos	4b-\	.
.	.	.	.	.	.	4a/	.
1G	sunt.	.	.	2.d\	ho-	2b-\	.
.	.	.	.	.	.	2b-\	-mi-
.	.	.	.	4e\	-mi-	.	.
=29	=29	=29	=29	=29	=29	=29	=29
2r	.	1c	Et	1f	-nes	1a	-nes,
2.F\	Qui-	.	.	.	.	.	.
.	.	2c\	pro-	2r	.	1r	.
4G\	.	.	.	.	.	.	.
2A\	.	2c\	-pter	1F	Et	.	.
2D\	-pro-	2d\	no-	.	.	1r	.
2E\	-pter	[2c\	-stram-	2G/	pro-	.	.
=30	=30	=30	=30	=30	=30	=30	=30
2F\	nos	2c\]	.	2A/	-pter	1r	.
2FF/	ho-	2A/	-sa-	1F	no-	.	.
1GG	-mi-	1B-	-lu-	.	.	1r	.
.	.	.	.	2E/	-stram	.	.
2FF/	-nes,	1A	-tem	2A/	sa-	[1cc	de-
2C/	et	.	.	2G/	.	.	.
=31	=31	=31	=31	=31	=31	=31	=31
2AA/	pro-	1r	.	2F/	-lu-	2cc\]	.
2GG/	-pter	.	.	2G/	.	2b-\	.
2FF/	no-	1c	De-	2.c\	.	1a	.
2F\	-stram	.	.	.	.	.	.
.	.	.	.	4d\	.	.	.
2E\	sa-	1c	-scen-	1e	-tem	[1g	-scen-
2C/	-lu-	.	.	.	.	.	.
=32	=32	=32	=32	=32	=32	=32	=32
1G	-tem	1B-	.	1d	de	1g]	.
2D\	de-	1A	.	2d\	scen-	1f	.
2F\	-scen-	.	.	4c\	.	.	.
.	.	.	.	4d\	.	.	.
2C/	.	1G	.	2e-i\	.	2g/	.
2GG/	.	.	.	[2d\	-dit	2b-\	.
=33	=33	=33	=33	=33	=33	=33	=33
1D	.	1F	.	2d\]	.	1a	-dit
.	.	.	.	2d\	de	.	.
1E-	-dit	2G/	.	1B-	cae-	2r	.
.	.	2B-\	.	.	.	1g	de
2r	.	1A	-dit	2c\	.	.	.
2D\	de	.	.	2d\	.	2f/	.
=34	=34	=34	=34	=34	=34	=34	=34
1.E-i	cae-	2G/	de-	2B-\	.	2.b-\	cae-
.	.	2.B-\	-cae-	2.G/	.	.	.
.	.	.	.	.	.	4a/	.
.	.	.	.	.	.	4g/	.
.	.	4A/	.	4A/	.	4f/	.
2D\	.	4G/	.	2B-\	.	1f	.
.	.	4F/	.	.	.	.	.
1C	.	1G	.	[1cl	-lis.	.	.
.	.	.	.	.	.	2e/	.
=35	=35	=35	=35	=35	=35	=35	=35
0.FFl	-lis.	0.Fl	-lis.	0.c]	.	0.fl	-lis.
!!LO:LB:i:g=z
=36||	=36||	=36||	=36||	=36||	=36||	=36||	=36||
*>B	*>B	*>B	*>B	*>B	*>B	*>B	*>B
*clefF4	*	*clefGv2	*	*clefGv2	*	*clefG2	*
*k[b-]	*	*k[b-]	*	*k[b-]	*	*k[b-]	*
*M2/1	*	*M2/1	*	*M2/1	*	*M2/1	*
*met(C|)	*	*met(C|)	*	*met(C|)	*	*met(C|)	*
!!section: Et incarnatus est
!!!OMD: Et incarnatus est
0D	Et	0F	Et	0A	Et	0r	.
=37	=37	=37	=37	=37	=37	=37	=37
1D	in-	1F	in-	1A	in-	0r	.
1F	-car-	1F	-car-	1A	-car-	.	.
=38	=38	=38	=38	=38	=38	=38	=38
1E-	-na-	1G	-na-	1B-	-na-	0r	.
1E-i	-tus	1G	-tus	1c	-tus	.	.
=39	=39	=39	=39	=39	=39	=39	=39
0D	est,-	0A	est,	0d	est,	0f	Et
=40	=40	=40	=40	=40	=40	=40	=40
1BB-	.	1r	.	1r	.	1f	in-
1D	.	1A	de	1d	de	1f	-car-
=41	=41	=41	=41	=41	=41	=41	=41
0C	.	1.c	Spi-	1.e	Spi-	1g	-na-
.	.	.	.	.	.	1g	-tus
.	.	2c\	-ri-	2e\	-ri-	.	.
=42	=42	=42	=42	=42	=42	=42	=42
0FF	.	1c	-tu-	1f	-tu	0a	est,
.	.	1c	-sanc-	1f	sanc-	.	.
=43	=43	=43	=43	=43	=43	=43	=43
1BB-	-de-	1d	-to,	1.f	-to-	1r	.
[1F	-Spi-	1c	.	.	.	1a	de
.	.	.	.	4e\	.	.	.
.	.	.	.	4d\	.	.	.
=44	=44	=44	=44	=44	=44	=44	=44
2F\]	.	0A	.	0c	.	0cc	Spi-
2F\	-ri-	.	.	.	.	.	.
1F	-tu	.	.	.	.	.	.
=45	=45	=45	=45	=45	=45	=45	=45
0G	sanc-	0r	.	1r	.	1b-	-ri-
.	.	.	.	[1d	-sanc-	1b-	-tu
=46	=46	=46	=46	=46	=46	=46	=46
1D	.	2.F/	sanc-	1d]	.	0a	sanc-
.	.	4G/	.	.	.	.	.
1F	.	2.A/	.	1c	.	.	.
.	.	4B-\	.	.	.	.	.
=47	=47	=47	=47	=47	=47	=47	=47
0C	-to,	0c	-to,	0e	-to,	0g	-to,
=48	=48	=48	=48	=48	=48	=48	=48
1r	.	1r	.	1r	.	1r	.
[1C	Ex	[1c	Ex-	[1e	Ex	[1g	ex-
=49	=49	=49	=49	=49	=49	=49	=49
1C]	.	1c]	.	1e]	.	1g]	.
1GG	Ma-	1B-	-Ma-	1d	Ma-	1g	-Ma-
=50	=50	=50	=50	=50	=50	=50	=50
1C	-ri-	1G	-ri-	1c	-ri-	1g	-ri-
1D	-a	1D	-a	1A	-a	1f	-a
=51	=51	=51	=51	=51	=51	=51	=51
1C	Vir-	1E	Vir-	1c	Vir-	1g	vir-
1AA	-gi	1F	-gi	1c	-gi-	1a	-gi
=52	=52	=52	=52	=52	=52	=52	=52
1.GG	ne	2.G/	ne	0d	-ne-	1.b-	ne-
.	.	4A/	.	.	.	.	.
.	.	[1B-	.	.	.	.	.
2AA/	.	.	.	.	.	4a/	.
.	.	.	.	.	.	4g/	.
=53	=53	=53	=53	=53	=53	=53	=53
1.BB-	.	2B-\]	.	1.d	-vir-	0f	.
.	.	4A/	.	.	.	.	.
.	.	4G/	.	.	.	.	.
.	.	1F	.	.	.	.	.
4AA/	.	.	.	4c\	-gi-	.	.
4GG/	.	.	.	4B-\	.	.	.
=54	=54	=54	=54	=54	=54	=54	=54
0FF	.	0r	.	0c	-ne,	0r	.
=55	=55	=55	=55	=55	=55	=55	=55
0F	Et	0c	Et	0f	Et	0a	-Et
=56	=56	=56	=56	=56	=56	=56	=56
1.E-	ho	1.G	ho-	1.g	ho-	1.b-	ho-
2D\	.	2A/	.	2f\	-mo	2a/	.
=57	=57	=57	=57	=57	=57	=57	=57
1E-i	mo	1B-	-mo	1e-	fac-	1g	.
1BB-	fac-	1B-	fac-	1d	-tus	1f	-mo
=58	=58	=58	=58	=58	=58	=58	=58
0C	-tus	0G	-tus	[0cl	est.	1e	fac-
.	.	.	.	.	.	1e	-tus
=59	=59	=59	=59	=59	=59	=59	=59
0FFl	est.	0Fl	est.	0c]	.	0fl	est.
!!LO:LB:i:g=z
=60||	=60||	=60||	=60||	=60||	=60||	=60||	=60||
*>C	*>C	*>C	*>C	*>C	*>C	*>C	*>C
*clefF4	*	*clefGv2	*	*clefGv2	*	*clefG2	*
*k[b-]	*	*k[b-]	*	*k[b-]	*	*k[b-]	*
*M2/1	*	*M2/1	*	*M2/1	*	*M2/1	*
*met(C|)	*	*met(C|)	*	*met(C|)	*	*met(C|)	*
!!section: Crucifixus
!!!OMD: Crucifixus
1F	Cru-	1F	Cru-	1c	Cru-	1f	Cru-
2F\	-ci-	2F/	-ci-	2c\	-ci-	2f/	-ci-
[2F\	-fi-	[2A/	-fi-	[2c\	-fi-	[2f/	-fi-
=61	=61	=61	=61	=61	=61	=61	=61
2F\]	.	2A/]	.	2c\]	.	2f/]	.
2D\	-xus	2A/	-xus	2d\	-xus	2f/	-xus
2BB-/	e-	2B-\	e-	2d\	e-	2f/	e-
2BB-/	-ti-	2B-\	-ti-	2d\	-ti-	2f/	-ti-
=62	=62	=62	=62	=62	=62	=62	=62
2D\	-am	2A/	-am	2d\	-am	2f/	-am
2D\	pro	2A/	pro	2d\	pro	2f/	pro
1GG	no-	1B-	no-	1d	no-	1g	no-
=63	=63	=63	=63	=63	=63	=63	=63
1D	-bis	1A	-bis	1d	-bis	1a	-bis
2r	.	2r	.	2r	.	2r	.
2D\	sub	2d\	sub	[2f\	sub	2a/	sub
=64	=64	=64	=64	=64	=64	=64	=64
2D\	Pon-	2d\	Pon-	2f\]	.	2a/	Pon-
2F\	-ti-	2c\	-ti-	2f\	Pon-	2a/	-ti-
2F\	-o	2A/	-o	2f\	-tio-	2.cc\	-o-
[2F\	Pi-	[2c\	Pi-	[2f\	-o-	.	.
.	.	.	.	.	.	4b-\	.
=65	=65	=65	=65	=65	=65	=65	=65
4F\]	.	4c\]	.	2f\]	.	4a/	.
4G\	.	4B-\	.	.	.	4g/	.
2E\	.	4A/	.	2c\	-Pi-	1g	-Pi-
.	.	4G/	.	.	.	.	.
1D	-la-	1A	-la-	1d	-la-	.	.
.	.	.	.	.	.	2f#i/	-la-
=66	=66	=66	=66	=66	=66	=66	=66
1GG	-to	1G	-to	1d	-to	1g	-to
2C/	pas-	2E/	pas-	2c\	pas-	2g/	pas-
2C/	-sus,	2G/	-sus,	2c\	-sus,	2g/	-sus,
=67	=67	=67	=67	=67	=67	=67	=67
2E-\	et	2G/	et	2c\	et	2g/	et
2D\	se-	2A/	se-	2d\	se-	2f/	se-
2E-i\	-pul-	2G/	-pul-	2B-\	-pul-	2g/	-pul-
2C/	-tus	2c\	-tus	2c\	-tus	2a/	-tus
=68	=68	=68	=68	=68	=68	=68	=68
1BB-	est,	1d	est,	1F	est,	1b-	est.
2r	.	2r	.	2r	.	2r	.
2E-i\	Et	2B-\	Et	2G/	Et	2b-\	Et
=69	=69	=69	=69	=69	=69	=69	=69
2E-i\	re-	2G/	re-	2G/	re-	2b-\	re-
2G\	-sur-	2G/	-sur-	2B-\	-sur-	2b-\	-sur-
1G	-re-	1B-	-re-	1d	-re-	1b-	-re-
=70	=70	=70	=70	=70	=70	=70	=70
1D	-xit	1F	-xit	1d	-xit	1a	-xit
1G	ter-	1B-	ter-	2d\	ter-	2r	.
.	.	.	.	2d\	-ti-	[2b-\	ter-
=71	=71	=71	=71	=71	=71	=71	=71
2F\	-ti-	1c	-ti-	1f	-a	2b-\]	.
2F\	-a	.	.	.	.	2a/	-ti-
1E-	di-	1G	-a	2.B-\	di-	2b-\	-a
.	.	.	.	.	.	2g/	di-
.	.	.	.	4c\	.	.	.
=72	=72	=72	=72	=72	=72	=72	=72
1BB-	-e	1B-	di-	1d	-e,	1f	-e,
2.D\	se-	2A/	-e	1d	se-	1f	se-
.	.	2D/	se-	.	.	.	.
4C/	.	.	.	.	.	.	.
=73	=73	=73	=73	=73	=73	=73	=73
2AA/	-cun-	2E/	-cun-	1c	-cun-	1a	-cun-
2AA/	-dum	2F/	-dum	.	.	.	.
2.GG/	Scrip-	2.G/	Scrip-	2B-\	-dum	1b-	-dum
.	.	.	.	[2G/	Scrip-	.	.
4AA/	.	4F/	.	.	.	.	.
=74	=74	=74	=74	=74	=74	=74	=74
4BB-/	.	4D/	.	2G/]	.	2g/	Scrip-
4C/	.	4E/	.	.	.	.	.
2FF/	.	1F	.	1c	.	1a	-tu
2F\	-tu-	.	.	.	.	.	.
2D\	.	[2A/	.	2F/	.	4g/	.
.	.	.	.	.	.	4f/	.
=75	=75	=75	=75	=75	=75	=75	=75
2C/	.	2A/]	.	2c\	-tu-	2e/	.
2BB-/	.	2B-\	.	2d\	.	1f	.
1C	.	1G	-tu-	1c	-ras.	.	.
.	.	.	.	.	.	2e/	.
=76	=76	=76	=76	=76	=76	=76	=76
1FF	-ras.	1F	-ras.	2A/	Et	1f	ras.
.	.	.	.	2A/	a-	.	.
1r	.	1r	.	2G/	-scen-	2g/	Et
.	.	.	.	2E/	-dit	2g/	a-
=77	=77	=77	=77	=77	=77	=77	=77
1r	.	0r	.	2F/	in	1a	-scen-
.	.	.	.	2F/	cae-	.	.
2C/	Et	.	.	1E	-lum,	2g/	-dit
2C/	a-	.	.	.	.	2e/	in
=78	=78	=78	=78	=78	=78	=78	=78
1D	-scen-	0r	.	1r	.	1f	cae-
2C/	-dit	.	.	1c	Se-	1e	-lum.
2AA/	in	.	.	.	.	.	.
=79	=79	=79	=79	=79	=79	=79	=79
1BB-	cae-	2r	.	2d\	-det	0r	.
.	.	2F/	se-	2d\	ad	.	.
1AA	-lum	2c\	-det	2c\	dex-	.	.
.	.	2c\	ad	2A/	-te-	.	.
=80	=80	=80	=80	=80	=80	=80	=80
0r	.	1d	dex-	2B-\	-rum	1r	.
.	.	.	.	2B-\	Pa-	.	.
.	.	2c\	-te-	1A	-tris	1cc	Et
.	.	2A/	-ram	.	.	.	.
=81	=81	=81	=81	=81	=81	=81	=81
0r	.	1B-	Pa-	2r	.	2dd\	i-
.	.	.	.	2G/	Et	2dd\	-te-
.	.	1A	-tris.	2A/	i-	2cc\	-rum
.	.	.	.	2A/	-te-	2a/	ven-
=82	=82	=82	=82	=82	=82	=82	=82
2r	.	0r	.	2.G/	-rum	2b-\	-tu-
2GG/	Et	.	.	.	.	2b-\	-rus
.	.	.	.	4E/	ven-	.	.
2D\	i-	.	.	2F/	-tu-	1a	est
2D\	-te-	.	.	2F/	-rus	.	.
=83	=83	=83	=83	=83	=83	=83	=83
2C/	-rum	2r	.	1E	est	0r	.
2AA/	ven-	2c\	cum	.	.	.	.
2BB-/	-tu-	2d\	glo-	1G	cum	.	.
2BB-/	-rus	2d\	-ri-	.	.	.	.
=84	=84	=84	=84	=84	=84	=84	=84
1AA	est	2c\	-a	2A/	glo-	1r	.
.	.	2A/	ju-	2A/	-ri	.	.
1r	.	2B-\	-di-	2.G/	a-	2r	.
.	.	2B-\	-ca-	.	.	2g/	vi-
.	.	.	.	4E/	-ju-	.	.
=85	=85	=85	=85	=85	=85	=85	=85
0r	.	1A	-re	2F/	-di-	1a	-vos
.	.	.	.	2F/	-ca-	.	.
.	.	1r	.	2E/	-re	2.g/	et-
.	.	.	.	2G/	vi-	.	.
.	.	.	.	.	.	4e/	.
=86	=86	=86	=86	=86	=86	=86	=86
1D	vi-	0r	.	2.A/	-vos	2f/	.
.	.	.	.	.	.	2f/	-mor-
.	.	.	.	4F/	et	.	.
2C/	-vos	.	.	2G/	mor-	2e/	.
2AA/	et	.	.	[2A/	.	2c/	-tu-
=87	=87	=87	=87	=87	=87	=87	=87
2BB-/	mor-	1r	.	2A/]	.	1d	-os,
2BB-/	-tu	.	.	2G/	-tu-	.	.
1AA	os,	1c	cu-	1A	-os,	4e/	cu-
.	.	.	.	.	.	4f/	.
.	.	.	.	.	.	4g/	.
.	.	.	.	.	.	4a/	.
=88	=88	=88	=88	=88	=88	=88	=88
0r	.	1d	-jus-	2G/	cu-	2b-\	-jus
.	.	.	.	2F/	.	1a	re-
.	.	1B-	-re-	1G	-jus	.	.
.	.	.	.	.	.	2g/	-gni
=89	=89	=89	=89	=89	=89	=89	=89
1F	cu-	1A	-gni	4A/	re-	2cc\	non-
.	.	.	.	4B-\	.	.	.
.	.	.	.	4c\	.	4b-\	.
.	.	.	.	4d\	.	4a/	.
2E\	-jus	1r	.	2e\	-gni	2g/	.
2D\	re-	.	.	2f\	non	[2a/	-e-
=90	=90	=90	=90	=90	=90	=90	=90
1C	-gni	1r	.	2e\	e-	4a/]	.
.	.	.	.	.	.	4g/	.
.	.	.	.	2.c\	.	1e	-rit
2r	.	1c	non-	.	.	.	.
.	.	.	.	4B-\	.	.	.
[2E-\	non-	.	.	[2G/	.	[2g/	fi-
=91	=91	=91	=91	=91	=91	=91	=91
2E-\]	.	2B-\	-e-	2G/]	.	2g/]	.
2F\	-e-	2A/	-rit	1c	-rit	1f	.
2C/	-rit	1G	fi	.	.	.	.
2C/	fi-	.	.	2c\	fi-	2e/	.
=92	=92	=92	=92	=92	=92	=92	=92
1FF	-nis	1F	nis.	1A	-nis.	1f	-nis.
2r	.	2r	.	2r	.	2r	.
[2BB-/	Et-	[2F/	Et-	[2B-\	Et-	[2f/	Et-
=93	=93	=93	=93	=93	=93	=93	=93
2BB-/]	.	2F/]	.	2B-\]	.	2f/]	.
2BB-/	-in	2B-\	-in	2d\	-in	2f/	-in
2D\	Spi-	2A/	Spi-	2d\	Spi-	2f/	Spi-
2D\	-ri-	2A/	-ri-	2d\	-ri-	2f/	-ri
=94	=94	=94	=94	=94	=94	=94	=94
1GG	-tum	1G	-tum	1d	-tum	1g	tum
2r	.	2r	.	2r	.	2r	.
[2D\	sanc-	[2A/	sanc-	[2d\	sanc-	[2f/	sanc-
=95	=95	=95	=95	=95	=95	=95	=95
2D\]	.	2A/]	.	2d\]	.	2f/]	.
2BB-/	-num	2B-\	-num	2d\	-num	2f/	-tum
2D\	Do-	2A/	Do-	2d\	Do-	2f/	Do-
2D\	-mi-	2B-\	-mi-	2d\	-mi-	2f/	-mi-
=96	=96	=96	=96	=96	=96	=96	=96
1C	-num	1c	-num	1e	-num	1g	-num
1BB-	et	1d	et	1f	et	1b-	et
=97	=97	=97	=97	=97	=97	=97	=97
2F\	vi-	2c\	vi-	2f\	vi-	2a/	vi-
2BB-/	-vi-	2d\	-vi-	2f\	-vi-	2b-\	-vi-
2C/	-fi-	2c\	-fi-	2e\	-fi-	2a/	-fi-
2BB-/	-can-	2d\	-can-	2f\	-can-	[2b-\	-can-
=98	=98	=98	=98	=98	=98	=98	=98
1E-	.	1G	.	2B-\	.	2b-\]	.
.	.	.	.	2c\	.	4a/	.
.	.	.	.	.	.	4g/	.
1D	.	1A	.	1d	.	2g/	.
.	.	.	.	.	.	2f#i/	.
=99	=99	=99	=99	=99	=99	=99	=99
1GG	-tem	1G	-tem	1B-	-tem,	1g	-tem
1r	.	1r	.	2A/	Qui	2r	.
.	.	.	.	[2G/	ex	[2b-\	Qui-
=100	=100	=100	=100	=100	=100	=100	=100
0r	.	0r	.	4G/]	.	2b-\]	.
.	.	.	.	4F/	.	.	.
.	.	.	.	1f	Pa-	2a/	-ex
.	.	.	.	.	.	1g	Pa-
.	.	.	.	2e\	-tre	.	.
=101	=101	=101	=101	=101	=101	=101	=101
1BB-	Fi-	1r	.	1d	Fi-	1f	-tre
2AA/	-li-	2r	.	2c\	-li-	1r	.
2GG/	-o-	[2B-\	Pro-	2B-\	-o	.	.
=102	=102	=102	=102	=102	=102	=102	=102
1FF	-que	2B-\]	.	1c	que	1r	.
.	.	2A/	.	.	.	.	.
1r	.	1G	-ce-	2d\	pro-	1b-	Qui
.	.	.	.	2B-\	-ce-	.	.
=103	=103	=103	=103	=103	=103	=103	=103
2r	.	1F	-dit	1c	-dit.	1a	cum
2F\	Qui	.	.	.	.	.	.
1E	cum	2r	.	1r	.	1g	Pa-
.	.	2c\	Qui	.	.	.	.
=104	=104	=104	=104	=104	=104	=104	=104
1D	Pa-	2c\	cum	2r	.	1f	-tre
.	.	2B-\	Pa-	2F/	Qui	.	.
1C	-tre	1c	-tre	2G/	cum	1r	.
.	.	.	.	2A/	Pa-	.	.
=105	=105	=105	=105	=105	=105	=105	=105
2r	.	2B-\	et	2G/	-tre	0r	.
2D\	et	1A	Fi-	2F/	et	.	.
2C/	Fi-	.	.	2E/	Fi-	.	.
2BB-/	-li-	2G/	-li-	2D/	-li-	.	.
=106	=106	=106	=106	=106	=106	=106	=106
2AA/	-o	2A/	-o	2E/	-o	2r	.
1D	si-	1A	si-	2F/	si-	1f	si-
.	.	.	.	2D/	.	.	.
2AA/	-mul	2A/	-mul	2C/	-mul	2e/	-mul
=107	=107	=107	=107	=107	=107	=107	=107
2C/	ad-	2G/	ad-	2.E/	ad-	2e/	ad-
2AA/	-o-	2A/	-o-	.	.	2c/	-o-
.	.	.	.	4F/	-o-	.	.
1GG	-ra-	1B-	-ra-	1G	-ra-	1d	-ra-
=108	=108	=108	=108	=108	=108	=108	=108
1AA	-tur	1A	.	2E/	.	1c	-tur
.	.	.	.	2F/	.	.	.
1AA	et	2E/	.	2E/	-tur	2r	.
.	.	2F/	.	[2A/	et	[2c/	et-
=109	=109	=109	=109	=109	=109	=109	=109
1AA	con-	2E/	.	4A/]	.	4c/]	.
.	.	.	.	4B-\	.	4d/	.
.	.	2C/	-tur	2c\	.	2e/	.
2FF/	-glo-	2r	.	2A/	con-	2f/	-con
2GG/	-ri-	2G/	et	[2B-\	-glo-	[2d/	glo-
=110	=110	=110	=110	=110	=110	=110	=110
2BB-/	-fi-	2F/	con-	2B-\]	.	2d/]	.
1C	.	2E/	-glo-	2G/	-ri-	2.g/	-ri-
.	.	2C/	-ri-	1c	-fi-	.	.
.	.	.	.	.	.	4f/	.
2C/	-ca-	[2G/	-fi-	.	.	2e/	-fi-
=111	=111	=111	=111	=111	=111	=111	=111
2BB-/	.	2G/]	.	2d\	-ca-	2d/	-ca-
2C/	.	2E/	.	1G	.	1c	.
1GG	-tur	1D	-ca	.	.	.	.
.	.	.	.	2G/	-tur	2Bni/	.
=112	=112	=112	=112	=112	=112	=112	=112
2C/	qui	1C	tur,	2E/	qui	1c	-tur,
2C/	lo-	.	.	1A	.	.	.
1D	-cu-	1r	.	.	.	1r	.
.	.	.	.	2B-\	lo-	.	.
=113	=113	=113	=113	=113	=113	=113	=113
1C	-tus	2r	.	2c\	-cu-	0r	.
.	.	2G/	qui	2c\	-tus	.	.
2AA/	est	2A/	lo-	1c	est	.	.
2C/	per	[2G/	-cu-	.	.	.	.
=114	=114	=114	=114	=114	=114	=114	=114
1D	Pro-	2G/]	.	1r	.	0r	.
.	.	2F/	-tus	.	.	.	.
1C	-phe-	1E	est	1G	per	.	.
=115	=115	=115	=115	=115	=115	=115	=115
1AA	-tas.	2r	.	1A	Pro-	1r	.
.	.	2C/	per	.	.	.	.
1C	Et	2G/	.	1G	-phe-	2r	.
.	.	2E/	Pro-	.	.	[2g/	Et-
=116	=116	=116	=116	=116	=116	=116	=116
1C	u-	2C/	-phe-	2E/	-tas.	2g/]	.
.	.	1c	.	2C/	Et	2e/	-u-
1D	-nam	.	.	1F	u-	2a/	-nam-
.	.	2Bni\	.	.	.	4g/	-San-
.	.	.	.	.	.	4f/	.
=117	=117	=117	=117	=117	=117	=117	=117
1C	San-	0c	-tas	2G/	-nam	1e	-ctam
.	.	.	.	1A	San-	.	.
2AA/	-ctam	.	.	.	.	2r	.
2C/	ca-	.	.	2G/	.	2e/	ca-
=118	=118	=118	=118	=118	=118	=118	=118
2D\	-tho-	2r	.	2F/	-ctam,	2f/	-tho-
2C/	-li-	1c	et	1E	ca-	2g/	-li-
1AA	-cam,	.	.	.	.	2.a/	-cam-
.	.	2c\	u-	[2A/	-tho-	.	.
.	.	.	.	.	.	4b-\	.
=119	=119	=119	=119	=119	=119	=119	=119
2r	.	2A/	-nam-	4A/]	.	1cc	.
.	.	.	.	4B-\	.	.	.
2AA/	et	2E/	-San-	4c\	-li-	.	.
.	.	.	.	4d\	.	.	.
2C/	a-	2E/	-ctam	2e\	-cam	2r	.
2C/	-po-	2G/	ca-	2r	.	2c/	-et
=120	=120	=120	=120	=120	=120	=120	=120
2D\	-sto-	2F/	-tho-	2A/	et	2f/	a-
2C/	.	2G/	-li-	1c	a-	2e/	-po-
2AA/	.	1A	-cam,	.	.	2e/	-sto-
2C/	-li-	.	.	2c\	-po-	2e/	-li-
=121	=121	=121	=121	=121	=121	=121	=121
2.D\	-cam	1r	.	1A	-sto-	2.f/	-cam-
4C/	.	.	.	.	.	4e/	.
1AA	.	2E/	et	1e	.	1c	.
.	.	[2A/	a-	.	.	.	.
=122	=122	=122	=122	=122	=122	=122	=122
1r	.	2A/]	.	2c\	.	2.f/	-ec-
.	.	2B-\	-po-	2d\	.	.	.
.	.	.	.	.	.	4g/	.
2r	.	2A/	-sto-	2c\	-li-	2a/	.
[2GG/	ec-	2G/	-li-	[2d\	-cam	[2b-\	-cle-
=123	=123	=123	=123	=123	=123	=123	=123
4GG/]	.	1B-	-cam	2d\]	.	4b-\]	.
4AA/	.	.	.	.	.	4a/	.
4BB-/	.	.	.	1d	ec-	2g/	.
4C/	.	.	.	.	.	.	.
2D\	.	2A/	.	.	.	2f/	.
2E\	.	2c\	ec-	2G/	-cle-	2g/	.
=124	=124	=124	=124	=124	=124	=124	=124
2F\	-cle-	2A/	-cle-	2c\	.	2c/	.
2BB-/	.	2B-\	.	2d\	-si-	1f	-si-
1C	-si-	1G	-si-	[1cl	-am.	.	.
.	.	.	.	.	.	2e/	.
=125	=125	=125	=125	=125	=125	=125	=125
0FFl	-am.	0Fl	-am.	0c]	.	0fl	-am.
!!LO:LB:i:g=z
=126||	=126||	=126||	=126||	=126||	=126||	=126||	=126||
*>D	*>D	*>D	*>D	*>D	*>D	*>D	*>D
*clefF4	*	*clefGv2	*	*clefGv2	*	*clefG2	*
*k[b-]	*	*k[b-]	*	*k[b-]	*	*k[b-]	*
*M3/1	*	*M3/1	*	*M3/1	*	*M3/1	*
*met(C|3)	*	*met(C|3)	*	*met(C|3)	*	*met(C|3)	*
!!section: Confiteor
!!!OMD: Confiteor
0FF	Con-	0F	Con-	0c	Con-	0.r	.
1FF	-fi-	1F	-fi-	1c	-fi-	.	.
=127	=127	=127	=127	=127	=127	=127	=127
1BB-	-te-	1F	-te-	1d	-te-	0.r	.
0BB-	-or	0G	-or	0d	-or	.	.
=128	=128	=128	=128	=128	=128	=128	=128
1AA	u-	[0.A	u-	1c	u-	0f	Con-
0D	-num	.	.	1A	.	.	.
.	.	.	.	[1d	-num	1f	-fi-
=129	=129	=129	=129	=129	=129	=129	=129
1D	ba-	1A]	.	1d]	.	1f	-te-
0GG	-ptis-	0B-	.	1.d	ba-	0g	-or
.	.	.	.	2B-\	.	.	.
=130	=130	=130	=130	=130	=130	=130	=130
0.FF	-ma.	0A	-num	1.c	-ptis-	1a	u-
.	.	.	.	.	.	1.cc	.
.	.	.	.	2B-\	.	.	.
.	.	1A	ba-	2A/	.	.	.
.	.	.	.	2G/	.	2b-\	.
=131	=131	=131	=131	=131	=131	=131	=131
0.r	.	0c	-ptis-	2F/	.	2a/	-num
.	.	.	.	2E/	.	2g/	.
.	.	.	.	1F	.	1.a	bap-
.	.	1B-	.	1G	.	.	.
.	.	.	.	.	.	2g/	.
=132	=132	=132	=132	=132	=132	=132	=132
0.r	.	1G	.	1E	.	1.g	-tis-
.	.	0A	.	0D	-ma	.	.
.	.	.	.	.	.	2f#i/	.
.	.	.	.	.	.	2f#i/	.
.	.	.	.	.	.	2e/	.
=133	=133	=133	=133	=133	=133	=133	=133
1.GG	in-	0G	-ma	1.d	in-	1g	-ma
.	.	.	.	.	.	1g	in
2AA/	.	.	.	2c\	.	.	.
2BB-/	-re-	1r	.	1B-	.	1g	re-
2C/	.	.	.	.	.	.	.
=134	=134	=134	=134	=134	=134	=134	=134
1D	-mis-	0.r	.	1A	-re-	1f	-mis-
1E	-si-	.	.	0c	-mi-	1g	.
1F	-o-	.	.	.	.	1a	.
=135	=135	=135	=135	=135	=135	=135	=135
1G	.	0G	in	1B-	-si-	0b-	.
0GG	.	.	.	[0d	-o-	.	.
.	.	1G	re-	.	.	1b-	-si-
=136	=136	=136	=136	=136	=136	=136	=136
1BB-	-nem	1F	-mis-	0d]	.	0b-	-o-
1r	.	1G	-si-	.	.	.	.
1r	.	1A	-o-	1c	.	2a/	.
.	.	.	.	.	.	2g/	.
=137	=137	=137	=137	=137	=137	=137	=137
0.r	.	0B-	-nem	0d	-nem	0f	-nem
.	.	1B-	pec-	1d	pec-	1r	.
=138	=138	=138	=138	=138	=138	=138	=138
1GG	pec-	1B-	-ca-	1B-	-ca-	1.d	pe-
1.BB-	-ca-	0B-	-to-	1.d	-to-	.	.
.	.	.	.	.	.	2e/	.
.	.	.	.	.	.	[1f	-ca-
2C/	.	.	.	2c\	.	.	.
=139	=139	=139	=139	=139	=139	=139	=139
2D\	.	1.F	.	0A	-rum.	2f/]	.
2E\	.	.	.	.	.	2g/	.
1.F	-to-	.	.	.	.	2a/	.
.	.	2G/	.	.	.	2b-\	.
.	.	1A	.	1r	.	1cc	.
2E\	.	.	.	.	.	.	.
=140	=140	=140	=140	=140	=140	=140	=140
2D\	.	0B-	.	1d	pec-	1f	.
2BB-/	.	.	.	.	.	.	.
1E-	.	.	.	1G	.	1.g	-to-
[1D	.	[1F	.	1A	-ca-	.	.
.	.	.	.	.	.	2f/	.
=141	=141	=141	=141	=141	=141	=141	=141
1D]	.	1F]	.	1B-	-to-	0f	.
0C	.	0G	.	0c	-rum.	.	.
.	.	.	.	.	.	1e	.
=142	=142	=142	=142	=142	=142	=142	=142
0FF	-rum.	0F	-rum.	0c	Et	0f	-rum.
1r	.	1r	.	1d	ex-	1r	.
=143	=143	=143	=143	=143	=143	=143	=143
0C	Et	0.r	.	1c	-spe-	0.r	.
.	.	.	.	1A	.	.	.
1D	ex-	.	.	1B-	-cto	.	.
=144	=144	=144	=144	=144	=144	=144	=144
1C	-spe-	0.r	.	0A	re-	0cc	Et
1AA	.	.	.	.	.	.	.
1BB-	.	.	.	1G	-sur-	1dd	ex-
=145	=145	=145	=145	=145	=145	=145	=145
0AA	-cto	0c	Et	0A	-re-	1cc	-spe-
.	.	.	.	.	.	1a	.
1r	.	1d	ex-	1G	-ti-	1b-	-cto
=146	=146	=146	=146	=146	=146	=146	=146
0.r	.	1c	-spe-	1A	-o-	0a	re-
.	.	0B-	.	0d	.	.	.
.	.	.	.	.	.	1g	-sur-
=147	=147	=147	=147	=147	=147	=147	=147
2AA/	re-	0A	-cto	[0.c	.	0a	-re-
2BB-/	.	.	.	.	.	.	.
2C/	-sur-	.	.	.	.	.	.
2D\	.	.	.	.	.	.	.
1E	-re	1r	.	.	.	1g	-ti-
=148	=148	=148	=148	=148	=148	=148	=148
1C	ti-	0.r	.	1c]	.	1e	-o-
0D	-o-	.	.	1A	.	0f	.
.	.	.	.	1B-	.	.	.
=149	=149	=149	=149	=149	=149	=149	=149
0C	-nem	1c	re-	1c	.	2e/	.
.	.	.	.	.	.	2f/	.
.	.	1c	-sur-	1A	.	2g/	.
.	.	.	.	.	.	2a/	.
1r	.	1d	-re-	1G	-nem	1b-	-nem
=150	=150	=150	=150	=150	=150	=150	=150
0.r	.	1c	-ti-	1r	.	0a	mor-
.	.	0B-	-o-	0d	mor-	.	.
.	.	.	.	.	.	1g	-tu-
=151	=151	=151	=151	=151	=151	=151	=151
0F	mor-	0A	-nem	1c	.	0cc	-o-
.	.	.	.	1A	.	.	.
1G	-tu-	1r	.	1G	-mor-	1b-	.
=152	=152	=152	=152	=152	=152	=152	=152
1F	-o-	0c	mor-	1c	-tu-	1a	.
0E-	.	.	.	0e-i	.	1.g	.
.	.	1B-	-tu-	.	.	.	.
.	.	.	.	.	.	2f/	.
=153	=153	=153	=153	=153	=153	=153	=153
1F	.	1A	-o-	1d	.	0f	.
0C	.	0G	.	0c	.	.	.
.	.	.	.	.	.	1e	.
=154	=154	=154	=154	=154	=154	=154	=154
1FF	-rum.	1.F	-rum.	0A	-rum.	0f	-rum.
1r	.	.	.	.	.	.	.
.	.	2G/	.	.	.	.	.
1r	.	1A	Et	1D	Et-	1f	Et
=155	=155	=155	=155	=155	=155	=155	=155
0.r	.	1G	vi-	0E-	-vi-	0g	vi-
.	.	1.B-	.	.	.	.	.
.	.	.	.	1E-i	-tam-	[1b-	-tam-
.	.	2A/	.	.	.	.	.
=156	=156	=156	=156	=156	=156	=156	=156
0.r	.	1.G	.	1G	-ven-	1b-]	.
.	.	.	.	0D	.	0a	-ven-
.	.	2F#i/	.	.	.	.	.
.	.	2F#i/	.	.	.	.	.
.	.	2E/	.	.	.	.	.
=157	=157	=157	=157	=157	=157	=157	=157
0.r	.	0G	-tam	1.d	-tu-	0g	-tu-
.	.	.	.	2c\	.	.	.
.	.	1r	.	2d\	.	1b-	.
.	.	.	.	2e\	.	.	.
=158	=158	=158	=158	=158	=158	=158	=158
1r	.	0.r	.	0f	.	1a	.
1r	.	.	.	.	.	0g	.
1C	Et	.	.	1e	.	.	.
=159	=159	=159	=159	=159	=159	=159	=159
0D	vi-	0.r	.	1.f	.	1f	-ri
.	.	.	.	.	.	1r	.
.	.	.	.	2e\	.	.	.
[1F	.	.	.	2d\	.	1r	.
.	.	.	.	2c\	.	.	.
=160	=160	=160	=160	=160	=160	=160	=160
1F]	.	0.r	.	0d	-ri	0.r	.
0E	.	.	.	.	.	.	.
.	.	.	.	1c	sae-	.	.
=161	=161	=161	=161	=161	=161	=161	=161
0D	-tam	0.r	.	1B-	.	0.r	.
.	.	.	.	1.A	.	.	.
1F	ven-	.	.	.	.	.	.
.	.	.	.	2G/	.	.	.
=162	=162	=162	=162	=162	=162	=162	=162
1E	.	1r	.	0c	.	0.r	.
0D	.	1r	.	.	.	.	.
.	.	1F	ven-	1Bni	-cu-	.	.
=163	=163	=163	=163	=163	=163	=163	=163
0C	-tu-	0G	-tu-	0c	-li	1.e	sae-
.	.	.	.	.	.	2f/	.
[1GG	.	[1B-	.	[1d	.	1g	.
=164	=164	=164	=164	=164	=164	=164	=164
1GG]	.	1B-]	.	0.d]	.	1d	.
0D	.	0A	.	.	.	0f	.
=165	=165	=165	=165	=165	=165	=165	=165
1.E-	.	0G	-ri	1.B-	A-	1g	.
.	.	.	.	.	.	1.b-	.
2D\	.	.	.	2c\	.	.	.
1BB-	-ri	1B-	sae-	1d	.	.	.
.	.	.	.	.	.	2a/	-cu-
=166	=166	=166	=166	=166	=166	=166	=166
1.F	sae-	1A	-cu-	1c	.	1f	-li
.	.	0G	-li.	1.d	.	1r	.
2E\	.	.	.	.	.	.	.
2E\	-cu-	.	.	.	.	1b-	A-
2D\	.	.	.	2G/	.	.	.
=167	=167	=167	=167	=167	=167	=167	=167
1F	-li	1F	A-	1c	.	1a	.
0E-	A-	0B-	.	0e-	.	1.g	.
.	.	.	.	.	.	2f/	.
=168	=168	=168	=168	=168	=168	=168	=168
1F	.	1A	.	[0.cl	-men.	1.f	.
0C	.	0G	.	.	.	.	.
.	.	.	.	.	.	2e/	.
.	.	.	.	.	.	2e/	.
.	.	.	.	.	.	2d/	.
=169	=169	=169	=169	=169	=169	=169	=169
0.FFl	-men.	0.Fl	-men.	0.c]	.	0.fl	-men.
==	==	==	==	==	==	==	==
*-	*-	*-	*-	*-	*-	*-	*-
!!!RDF**kern: l=long note in original notation
!!!RDF**kern: i=editorial accidental
!!!ENC:	Jesse Rodin 8/10/2013
!!!END:	2013/08/10/
!!!EED:	Jesse Rodin
!!!EEV:	2013/08/11/
!!!ONB:	Translated from MusicXML and edited on 2013/08/11/ by Craig Sapp
!!muse2ps: T^@{OPR}^u^@{ONM}{. }@{OTL}^C^@{COM}^i2I150v85,85,85,130c190
